X: 2
P: Jimmy's Favorite
C: Jim Magill
D: London 16040
Z: John Chambers <jc:trillian.mit.edu>
M: 6/8
L: 1/8
K: G
d \
|: "G"gbg gdB | "Em"G2G GAB | "Am"cdc cBA | "C"E6| "D7"f2f fed | faf f2e |
|1 "D7"ded ded | "G"B6 :|2 "D7"ded def | "G"g6 :: "G"G2G GDB, | GDB, GDB,  |
| "G7"G2G GAB | "Am"c6 | "D7"F2F FED | FED FED | FGA cBA |1 "G"B6 :|2 "G"G6 |]
